X: 140
T:Star Of The County Down, The
N: page 45
N: pentatonic
N: matches 335
R:March
C:Trad.
O:Irish
M:4/4
L:1/8
K:Bmin
FA|"Bm"B2 B2 B2 AB|"D"d2 d2 "A"e2 de|"Bm"f2 ed B2 AF|"A"A6 FA|"Bm"B2 B2 B2 "A"AB|"D"d2 d2 "A"e2 de|"Bm"f2 ed "F#"B2 B2|"Bm"B6 |
ef| "D"a2 f2 f2 ed|"A"e2 e2 e2 de|"Bm"f2 ed B2 AF|"A"A6 FA|"G"B2 B2 B2 AB|"D"d2 d2 "A"e2 de|"Bm"f2 ed "A"B2 B2|"Bm"B6|
fg| "D"abag f2 ed|"A"e2e2 fede|"Bm"f2ed BAF2|"A" A6 FA|\
"Bm"B2B2 B2AB|"D"d2d2 "A"e2de|"Bm"f2ed "G"B2 B2|"Bm"B6|
